fs/calendar_clock_16_regular.svg

<svg viewBox="0 0 16 16" fill="none" xmlns="http://www.w3.org/2000/svg" height="1em" width="1em">
  <path d="M11.5 2C12.8807 2 14 3.11929 14 4.5V6.25716C13.0491 5.47182 11.8296 5 10.5 5H13V4.5C13 3.67157 12.3284 3 11.5 3H4.5C3.67157 3 3 3.67157 3 4.5V5H10.5C9.32259 5 8.23159 5.36997 7.33692 6H3V11.5C3 12.3284 3.67157 13 4.5 13H5.59971C5.78261 13.3578 6.00353 13.6929 6.25716 14H4.5C3.11929 14 2 12.8807 2 11.5V4.5C2 3.11929 3.11929 2 4.5 2H11.5ZM10.5 15C12.9853 15 15 12.9853 15 10.5C15 8.01472 12.9853 6 10.5 6C8.01472 6 6 8.01472 6 10.5C6 12.9853 8.01472 15 10.5 15ZM10 8.5C10 8.22386 10.2239 8 10.5 8C10.7761 8 11 8.22386 11 8.5V10H12C12.2761 10 12.5 10.2239 12.5 10.5C12.5 10.7761 12.2761 11 12 11H10.5C10.2239 11 10 10.7761 10 10.5V8.5Z" fill="#212121"/>
</svg>

<svg viewBox="0 0 16 16" fill="none" xmlns="http://www.w3.org/2000/svg" height="1em" width="1em">
  <path d="M11.5 2A2.5 2.5 0 0 1 14 4.5v1.757A5.478 5.478 0 0 0 10.5 5H13v-.5A1.5 1.5 0 0 0 11.5 3h-7A1.5 1.5 0 0 0 3 4.5V5h7.5c-1.177 0-2.268.37-3.163 1H3v5.5A1.5 1.5 0 0 0 4.5 13h1.1c.183.358.404.693.657 1H4.5A2.5 2.5 0 0 1 2 11.5v-7A2.5 2.5 0 0 1 4.5 2h7Zm-1 13a4.5 4.5 0 1 0 0-9 4.5 4.5 0 0 0 0 9ZM10 8.5a.5.5 0 0 1 1 0V10h1a.5.5 0 0 1 0 1h-1.5a.5.5 0 0 1-.5-.5v-2Z" fill="#212121"/>
</svg>
